chess-pawn.svg

<svg fill="currentColor" viewBox="0 0 24 24"><path d="M19 22H5v-2h14zm-3-4H8l2.18-8H8V8h2.72l.07-.26A2.97 2.97 0 0 1 9.25 6.2c-.67-1.52.02-3.29 1.54-3.95 1.52-.67 3.29.02 3.95 1.54a2.99 2.99 0 0 1-1.54 3.95l.07.26H16v2h-2.18z"/></svg>

<svg  viewBox="0 0 24 24" fill="currentColor"><path  d="M19 22H5V20H19V22M16 18H8L10.18 10H8V8H10.72L10.79 7.74C10.1 7.44 9.55 6.89 9.25 6.2C8.58 4.68 9.27 2.91 10.79 2.25C12.31 1.58 14.08 2.27 14.74 3.79C15.41 5.31 14.72 7.07 13.2 7.74L13.27 8H16V10H13.82L16 18Z"/></svg>
